X:1
T:[ID 2-30]
T:[ID 2-30]
T:Bezeichnung standardisiert: Gesundheit Herr Nachbar; Waltzer In dieser Quelle auch als: Trinklied. Wenns immer so w\"ar; In dieser Quelle auch als: Waltzer Gesundheit Herr Nachbar da Gl\"aschen ist leer In dieser Quelle auch als: Waltzer oder Schleifer Tantz. In dieser Quelle auch als: Waltzer Wenns immer so w\"ar, so ists recht In anderer Quelle: 1. Walzer - W. M. Visser 1817 (Anm. S. Wascher);
T:Urheber unbekannt Datum in der hier transkribierten schriftlichen Quelle: 1767
C:Urheber unbekannt
C:Datum in der hier transkribierten schriftlichen Quelle: 1767
L:1/8
M:6/8
K:G
V:1 treble 
V:1
 D | GGD GGD | GGD G2 A | BBA BBA | BBA B2 d | dgB dcB | cDc cBd | dgB dcB | cDc cBA | %9
 [GB][GB][GB] [FA][FA][FA] | [E^c][Ec][Ec] [Fd]2 D | GG/A/ B/G/ EEE | cAF G2 d | %13
 c c/B/c/e/ dd/c/ B/d/ | c c/B/c/e/ d2 B | c c/B/c/e/ d2 ^c/d/ | BGD G2 :: d | %18
 ec/e/g/e/ e/d/c/B/A/G/ | F/G/A/B/c/d/ cBd | ec/e/g/e/ e/d/c/B/A/G/ | F/G/A/B/c/F/ G2 :| %22

